app/images/icons/twitter-icon.svg

<svg width="21" height="17" viewBox="0 0 21 17" fill="none" xmlns="http://www.w3.org/2000/svg">
<path d="M20.5263 1.98086C19.7715 2.30648 18.95 2.54082 18.1039 2.6321C18.9824 2.11021 19.6402 1.28571 19.954 0.313295C19.1297 0.80367 18.2266 1.14753 17.2849 1.32962C16.8913 0.908848 16.4153 0.573641 15.8865 0.344888C15.3577 0.116135 14.7874 -0.00126247 14.2113 1.02382e-05C11.8802 1.02382e-05 10.0054 1.88959 10.0054 4.20839C10.0054 4.534 10.0448 4.85962 10.109 5.17291C6.61845 4.99036 3.50534 3.3228 1.43568 0.769655C1.05857 1.41378 0.86095 2.14718 0.863383 2.89358C0.863383 4.35393 1.60589 5.6416 2.73816 6.39891C2.0709 6.37263 1.41926 6.18923 0.836248 5.86362V5.91542C0.836248 7.9604 2.2818 9.6551 4.20838 10.0449C3.84664 10.1388 3.47452 10.1869 3.10078 10.1879C2.82696 10.1879 2.56795 10.1608 2.30647 10.1238C2.8393 11.7914 4.39092 13.0026 6.23856 13.042C4.79301 14.1743 2.98237 14.8403 1.01633 14.8403C0.663572 14.8403 0.337953 14.828 0 14.7885C1.86491 15.9849 4.07763 16.6756 6.46057 16.6756C14.1965 16.6756 18.4295 10.2669 18.4295 4.70422C18.4295 4.52167 18.4295 4.33913 18.4172 4.15658C19.2362 3.55715 19.954 2.81464 20.5263 1.98086Z" fill="#31352B"/>
</svg>

<svg xmlns="http://www.w3.org/2000/svg" width="21" height="17" fill="none"><path d="M20.526 1.98a8.436 8.436 0 0 1-2.422.652 4.196 4.196 0 0 0 1.85-2.319 8.304 8.304 0 0 1-2.67 1.017A4.196 4.196 0 0 0 14.212 0a4.205 4.205 0 0 0-4.206 4.208c0 .326.04.652.104.965A11.954 11.954 0 0 1 1.436.77a4.177 4.177 0 0 0-.573 2.124c0 1.46.743 2.748 1.875 3.505a4.243 4.243 0 0 1-1.902-.535v.051a4.207 4.207 0 0 0 3.372 4.13 4.456 4.456 0 0 1-1.107.143c-.274 0-.533-.027-.795-.064a4.214 4.214 0 0 0 3.933 2.918 8.43 8.43 0 0 1-5.223 1.798c-.352 0-.678-.012-1.016-.051a11.911 11.911 0 0 0 6.46 1.887c7.737 0 11.97-6.41 11.97-11.972 0-.182 0-.365-.013-.547a9.06 9.06 0 0 0 2.11-2.176Z"/></svg>
